svg/icon/blz.svg

<svg xmlns="http://www.w3.org/2000/svg" xmlns:xlink="http://www.w3.org/1999/xlink" width="32" height="32" viewBox="0 0 32 32"><defs><linearGradient id="blz-c" x1="50%" x2="50%" y1="0%" y2="100%"><stop offset="0%" stop-color="#FFF" stop-opacity=".5"/><stop offset="100%" stop-opacity=".5"/></linearGradient><circle id="blz-b" cx="16" cy="15" r="15"/><filter id="blz-a" width="111.7%" height="111.7%" x="-5.8%" y="-4.2%" filterUnits="objectBoundingBox"><feOffset dy=".5" in="SourceAlpha" result="shadowOffsetOuter1"/><feGaussianBlur in="shadowOffsetOuter1" result="shadowBlurOuter1" stdDeviation=".5"/><feComposite in="shadowBlurOuter1" in2="SourceAlpha" operator="out" result="shadowBlurOuter1"/><feColorMatrix in="shadowBlurOuter1" values="0 0 0 0 0 0 0 0 0 0 0 0 0 0 0 0 0 0 0.199473505 0"/></filter><path id="blz-e" d="M11.6328877,19.3355344 C12.2950444,20.0108637 12.2950444,21.1049744 11.6328877,21.7803037 C10.970731,22.455633 9.89674063,22.4568782 9.23307681,21.783086 C8.91299401,21.4587602 8.73302798,21.0178264 8.73302798,20.557919 C8.73302798,20.0980117 8.91299401,19.6570779 9.23307681,19.3327521 C9.89674063,18.6589599 10.970731,18.660205 11.6328877,19.3355344 Z M22.6959839,7.72662643 C23.3304559,7.99434396 23.7441458,8.62506175 23.7441458,9.32466962 C23.7441458,10.0242775 23.3304559,10.6549953 22.6959839,10.9227128 C22.0615119,11.1904303 21.3312102,11.0424235 20.845626,10.5477095 C20.5268246,10.2235534 20.3476727,9.78353252 20.3476727,9.32466962 C20.3476727,8.86580672 20.5268246,8.42578583 20.845626,8.1016297 C21.3312102,7.60691569 22.0615119,7.4589089 22.6959839,7.72662643 Z M11.4103515,18.0020847 L13.0472745,16.3259882 C13.3757695,17.1597627 14.0244367,17.8205817 14.8428789,18.1552305 L13.20178,19.8270729 L11.4103515,18.0020847 Z M21.1070326,11.864764 L19.4659337,13.5366064 C19.3058771,13.1249356 19.0642156,12.7513081 18.7560436,12.439061 C18.4474607,12.1246512 18.079547,11.8771924 17.6745052,11.7116181 L19.3156041,10.0397757 L21.1070326,11.864764 Z M20.4203099,19.8074531 C20.6831044,19.1610952 21.3022239,18.7396554 21.9889666,18.7396554 C22.6757094,18.7396554 23.2948289,19.1610952 23.5576234,19.8074531 C23.8204179,20.4538109 23.6751328,21.1977937 23.1895161,21.6924747 C22.8713209,22.0172484 22.4393915,22.1997564 21.9889666,22.1997564 C21.5385418,22.1997564 21.1066124,22.0172484 20.7884172,21.6924747 C20.3028005,21.1977937 20.1575154,20.4538109 20.4203099,19.8074531 Z M9.0353431,8.50869127 C9.29813757,7.86233341 9.91725709,7.44089362 10.6039999,7.44089362 C11.2907426,7.44089362 11.9098621,7.86233341 12.1726566,8.50869127 C12.4354511,9.15504913 12.290166,9.89903194 11.8045493,10.3937129 C11.4863541,10.7184866 11.0544247,10.9009946 10.6039999,10.9009946 C10.153575,10.9009946 9.72164565,10.7184866 9.40345043,10.3937129 C8.91783372,9.89903194 8.77254863,9.15504913 9.0353431,8.50869127 Z M19.1803074,19.7543286 L17.5350327,18.0867403 C18.3534748,17.7520915 19.0021421,17.0912724 19.330637,16.257498 L20.9717359,17.9293404 L19.1803074,19.7543286 Z M13.338747,9.94491038 L14.9798459,11.6167528 C14.5757454,11.7798078 14.2089884,12.0259965 13.9024833,12.3399416 C13.5938552,12.6543054 13.350947,13.0291113 13.1884174,13.441741 L11.5473185,11.7698986 L13.338747,9.94491038 Z M16.2806151,8.46279871 C15.3419738,8.46279871 14.5810547,7.68762492 14.5810547,6.73139959 C14.5810547,5.77517426 15.3419738,5.00000047 16.2806151,5.00000047 C16.7314685,4.99966155 17.1639516,5.18196745 17.4827532,5.50674127 C17.8015547,5.83151508 17.9805082,6.27210017 17.9801755,6.73139959 C17.9801755,7.68762492 17.2192564,8.46279871 16.2806151,8.46279871 Z M17.9801755,23.2686009 C17.9801755,24.2248262 17.2192564,25 16.2806151,25 C15.3419738,25 14.5810547,24.2248262 14.5810547,23.2686009 C14.5810547,22.3123756 15.3419738,21.5372018 16.2806151,21.5372018 C16.7314685,21.5368628 17.1639516,21.7191687 17.4827532,22.0439426 C17.8015547,22.3687164 17.9805082,22.8093015 17.9801755,23.2686009 Z M16.8978019,9.36891176 L16.8978019,11.5129539 C16.5440982,11.450542 16.1824947,11.450542 15.828791,11.5129539 L15.828791,9.36891176 L16.8978019,9.36891176 Z M16.8978019,18.5814865 L16.8978019,20.7255287 L15.828791,20.7255287 L15.828791,18.5814865 C16.1824947,18.6438985 16.5440982,18.6438985 16.8978019,18.5814865 Z M22.2302501,15.1886766 C21.9671904,14.5416971 22.1125976,13.7969915 22.5986684,13.3018148 C23.0847393,12.8066381 23.8157505,12.658507 24.4508327,12.9264946 C25.0859149,13.1944823 25.4999995,13.8258133 25.4999995,14.5260989 C25.5003322,14.9853983 25.3213788,15.4259834 25.0025772,15.7507572 C24.6837757,16.075531 24.2512925,16.2578369 23.8004391,16.257498 C23.1130311,16.257498 22.4933097,15.8356561 22.2302501,15.1886766 Z M6.5,14.8201956 C6.49992315,13.8640257 7.26069511,13.0888114 8.19928203,13.0886547 C9.13786894,13.0884981 9.89889014,13.8634585 9.89912075,14.8196284 C9.89945332,15.2789669 9.72051315,15.7195956 9.40172365,16.044437 C9.08293414,16.3692783 8.65045212,16.5516789 8.19956035,16.551453 C7.26097342,16.5514529 6.50007685,15.7763655 6.5,14.8201956 Z M21.5834941,15.3645725 L19.4788788,15.3628709 C19.540143,15.002541 19.540143,14.6341634 19.4788788,14.2738336 L21.5834941,14.2738336 L21.5834941,15.3645725 Z M12.9395383,15.3645725 L10.8349229,15.3645725 L10.8349229,14.2755352 L12.9395383,14.2755352 C12.878274,14.635865 12.878274,15.0042426 12.9395383,15.3645725 Z M16.2296701,17.4022633 C14.8989673,17.4022633 13.8202196,16.3033069 13.8202196,14.9476754 C13.8202196,13.5920439 14.8989673,12.4930875 16.2296701,12.4930875 C17.5601819,12.493557 18.6386596,13.5922385 18.6391206,14.9476754 C18.6391206,16.3033069 17.5603728,17.4022633 16.2296701,17.4022633 Z"/><filter id="blz-d" width="118.4%" height="117.5%" x="-9.2%" y="-6.2%" filterUnits="objectBoundingBox"><feOffset dy=".5" in="SourceAlpha" result="shadowOffsetOuter1"/><feGaussianBlur in="shadowOffsetOuter1" result="shadowBlurOuter1" stdDeviation=".5"/><feColorMatrix in="shadowBlurOuter1" values="0 0 0 0 0 0 0 0 0 0 0 0 0 0 0 0 0 0 0.204257246 0"/></filter></defs><g fill="none" fill-rule="evenodd"><use fill="#000" filter="url(#blz-a)" xlink:href="#blz-b"/><use fill="#18578C" xlink:href="#blz-b"/><use fill="url(#blz-c)" style="mix-blend-mode:soft-light" xlink:href="#blz-b"/><circle cx="16" cy="15" r="14.5" stroke="#000" stroke-opacity=".097"/><g fill-rule="nonzero"><use fill="#000" filter="url(#blz-d)" xlink:href="#blz-e"/><use fill="#FFF" fill-rule="evenodd" xlink:href="#blz-e"/></g></g></svg>

<svg xmlns="http://www.w3.org/2000/svg" xmlns:xlink="http://www.w3.org/1999/xlink" width="32" height="32" viewBox="0 0 32 32"><defs><linearGradient id="c" x1="50%" x2="50%" y1="0%" y2="100%"><stop offset="0%" stop-color="#FFF" stop-opacity=".5"/><stop offset="100%" stop-opacity=".5"/></linearGradient><circle id="b" cx="16" cy="15" r="15"/><filter id="a" width="111.7%" height="111.7%" x="-5.8%" y="-4.2%" filterUnits="objectBoundingBox"><feOffset dy=".5" in="SourceAlpha" result="shadowOffsetOuter1"/><feGaussianBlur in="shadowOffsetOuter1" result="shadowBlurOuter1" stdDeviation=".5"/><feComposite in="shadowBlurOuter1" in2="SourceAlpha" operator="out" result="shadowBlurOuter1"/><feColorMatrix in="shadowBlurOuter1" values="0 0 0 0 0 0 0 0 0 0 0 0 0 0 0 0 0 0 0.199473505 0"/></filter><path id="e" d="M11.633 19.336a1.752 1.752 0 0 1 0 2.444 1.676 1.676 0 0 1-2.4.003c-.32-.324-.5-.765-.5-1.225 0-.46.18-.9.5-1.225a1.676 1.676 0 0 1 2.4.003zm11.063-11.61a1.73 1.73 0 0 1 1.048 1.599c0 .7-.414 1.33-1.048 1.598a1.675 1.675 0 0 1-1.85-.375 1.745 1.745 0 0 1-.498-1.223c0-.46.179-.9.498-1.223a1.675 1.675 0 0 1 1.85-.375zM11.41 18.003l1.637-1.676a3.263 3.263 0 0 0 1.796 1.83l-1.641 1.671-1.792-1.825zm9.697-6.137l-1.641 1.672a3.226 3.226 0 0 0-.71-1.098 3.227 3.227 0 0 0-1.081-.727l1.64-1.672 1.792 1.825zm-.687 7.942a1.698 1.698 0 0 1 1.569-1.067c.687 0 1.306.421 1.569 1.067.262.647.117 1.39-.368 1.885a1.68 1.68 0 0 1-1.201.508 1.68 1.68 0 0 1-1.2-.508 1.753 1.753 0 0 1-.369-1.885zM9.035 8.51a1.698 1.698 0 0 1 1.569-1.068c.687 0 1.306.421 1.569 1.068.262.646.117 1.39-.368 1.885a1.68 1.68 0 0 1-1.201.507 1.68 1.68 0 0 1-1.2-.507 1.753 1.753 0 0 1-.369-1.885zM19.18 19.754l-1.645-1.667a3.263 3.263 0 0 0 1.796-1.83l1.64 1.672-1.79 1.825zm-5.841-9.81l1.64 1.673a3.17 3.17 0 0 0-1.077.723c-.308.314-.551.69-.714 1.102l-1.64-1.672 1.79-1.825zm2.942-1.481c-.939 0-1.7-.775-1.7-1.732 0-.956.761-1.731 1.7-1.731.45 0 .883.182 1.202.507.319.325.498.765.497 1.224 0 .957-.76 1.732-1.7 1.732zm1.7 14.806c0 .956-.762 1.731-1.7 1.731-.939 0-1.7-.775-1.7-1.731 0-.957.761-1.732 1.7-1.732.45 0 .883.182 1.202.507.319.325.498.765.497 1.225zm-1.083-13.9v2.144a3.075 3.075 0 0 0-1.07 0V9.369h1.07zm0 9.212v2.145h-1.07V18.58c.354.063.716.063 1.07 0zm5.332-3.392a1.755 1.755 0 0 1 .369-1.887 1.677 1.677 0 0 1 1.852-.376c.635.268 1.049.9 1.049 1.6 0 .46-.179.9-.497 1.225a1.683 1.683 0 0 1-2.773-.562zM6.5 14.82c0-.956.76-1.731 1.7-1.731.938 0 1.699.774 1.7 1.73 0 .46-.18.9-.498 1.225a1.683 1.683 0 0 1-1.202.507c-.939 0-1.7-.775-1.7-1.73zm15.083.545l-2.104-.002a3.25 3.25 0 0 0 0-1.09h2.104v1.092zm-8.643 0h-2.105v-1.09h2.105a3.25 3.25 0 0 0 0 1.09zm3.29 2.037c-1.331 0-2.41-1.099-2.41-2.454 0-1.356 1.079-2.455 2.41-2.455 1.33 0 2.409 1.1 2.41 2.455 0 1.355-1.08 2.454-2.41 2.454z"/><filter id="d" width="118.4%" height="117.5%" x="-9.2%" y="-6.2%" filterUnits="objectBoundingBox"><feOffset dy=".5" in="SourceAlpha" result="shadowOffsetOuter1"/><feGaussianBlur in="shadowOffsetOuter1" result="shadowBlurOuter1" stdDeviation=".5"/><feColorMatrix in="shadowBlurOuter1" values="0 0 0 0 0 0 0 0 0 0 0 0 0 0 0 0 0 0 0.204257246 0"/></filter></defs><g fill="none" fill-rule="evenodd"><use fill="#000" filter="url(#a)" xlink:href="#b"/><use fill="#18578C" xlink:href="#b"/><use fill="url(#c)" style="mix-blend-mode:soft-light" xlink:href="#b"/><circle cx="16" cy="15" r="14.5" stroke="#000" stroke-opacity=".097"/><g fill-rule="nonzero"><use fill="#000" filter="url(#d)" xlink:href="#e"/><use fill="#FFF" fill-rule="evenodd" xlink:href="#e"/></g></g></svg>
